usr/share/icons/biglinux-icons-material-dark/symbolic/status/network-cellular-disconnected-symbolic.svg

<svg width="16" height="16.001" version="1.1" xmlns="http://www.w3.org/2000/svg">
 <path d="m12 2v4.0234a5.5 5.5 0 0 1 1 0.18555v-3.209h1v3.6035a5.5 5.5 0 0 1 1 0.6543v-5.2578h-3zm-4 3v2.2676a5.5 5.5 0 0 1 1-0.6543v-0.61328h1v0.21289a5.5 5.5 0 0 1 1-0.17578v-1.0371h-3zm-4 3v6h2.6133a5.5 5.5 0 0 1-0.61328-2.5v1.5h-1v-4h1v2.5a5.5 5.5 0 0 1 1-3.1426v-0.35742h-3zm-4 3v3h3v-3h-3zm1 1h1v1h-1v-1z" fill="#dedede"/>
 <path d="m11.5 7a4.5 4.5 0 0 0-4.5 4.5 4.5 4.5 0 0 0 4.5 4.5 4.5 4.5 0 0 0 4.5-4.5 4.5 4.5 0 0 0-4.5-4.5zm0 1a3.5 3.5 0 0 1 3.5 3.5 3.5 3.5 0 0 1-3.5 3.5 3.5 3.5 0 0 1-3.5-3.5 3.5 3.5 0 0 1 3.5-3.5zm-1.4141 1.3789-0.70703 0.70703 1.4141 1.4141-1.4141 1.4141 0.70703 0.70703 1.4141-1.4141 1.4141 1.4141 0.70703-0.70703-1.4141-1.4141 1.4141-1.4141-0.70703-0.70703-1.4141 1.4141z" fill="#dedede" style="paint-order:stroke fill markers"/>
</svg>

<svg xmlns="http://www.w3.org/2000/svg" width="16" height="16.001">
<path fill="#363636" d="M12 2v4.023a5.5 5.5 0 0 1 1 .186V3h1v3.603a5.5 5.5 0 0 1 1 .655V2zM8 5v2.268a5.5 5.5 0 0 1 1-.655V6h1v.213a5.5 5.5 0 0 1 1-.176V5zM4 8v6h2.613A5.5 5.5 0 0 1 6 11.5V13H5V9h1v2.5a5.5 5.5 0 0 1 1-3.143V8zm-4 3v3h3v-3zm1 1h1v1H1z"/>
<path fill="#363636" d="M11.5 7A4.5 4.5 0 0 0 7 11.5a4.5 4.5 0 0 0 4.5 4.5 4.5 4.5 0 0 0 4.5-4.5A4.5 4.5 0 0 0 11.5 7m0 1a3.5 3.5 0 0 1 3.5 3.5 3.5 3.5 0 0 1-3.5 3.5A3.5 3.5 0 0 1 8 11.5 3.5 3.5 0 0 1 11.5 8m-1.414 1.379-.707.707 1.414 1.414-1.414 1.414.707.707 1.414-1.414 1.414 1.414.707-.707-1.414-1.414 1.414-1.414-.707-.707-1.414 1.414z" style="paint-order:stroke fill markers"/>
</svg>
